assets/tab/tab_singer.svg

<svg height="20" viewBox="0 0 20 20" width="20" xmlns="http://www.w3.org/2000/svg"><path d="m12.8 8.20416666c1.0833333-.8375 1.7833333-2.14583332 1.7833333-3.62083332 0-2.52916666-2.0541666-4.58333334-4.5833333-4.58333334-2.52916668 0-4.58333334 2.05416666-4.58333334 4.58333334 0 1.46666666.69583334 2.775 1.775 3.6125-4.19583332.87083332-7.19166666 3.67083336-7.19166666 7.08333336 0 3.8791666 3.05833334 4.6916666 7.65416666 4.7208333h1.72083334v-2.5875c-.75833334-.2083333-1.875-.9083333-1.875-3.2333333 0-3.1833334 2.07083334-3.3458334 2.4875-3.3458334.4208333 0 2.5125.1625 2.5125 3.3333334 0 2.3083333-1.1083333 3.0208333-1.875 3.2375v2.5958333h1.6916667l.5208333-.0083333c3.7208333-.0791667 7.1625-.7041667 7.1625-4.7125 0-3.4041667-2.9958333-6.20000004-7.2-7.07500004z" fill="#d1e0f3"/></svg>

<?xml version="1.0" encoding="UTF-8"?>
<svg width="20px" height="20px" viewBox="0 0 20 20" version="1.1" xmlns="http://www.w3.org/2000/svg" xmlns:xlink="http://www.w3.org/1999/xlink">
    <title>编组</title>
    <g id="页面-1" stroke="none" stroke-width="1" fill="none" fill-rule="evenodd">
        <g id="歌库-歌曲" transform="translate(-301.000000, -738.000000)" fill="#D1E0F3" fill-rule="nonzero">
            <g id="编组" transform="translate(301.000000, 738.000000)">
                <path d="M12.8,8.20416666 C13.8833333,7.36666666 14.5833333,6.05833334 14.5833333,4.58333334 C14.5833333,2.05416668 12.5291667,0 10,0 C7.47083332,0 5.41666666,2.05416666 5.41666666,4.58333334 C5.41666666,6.05 6.1125,7.35833334 7.19166666,8.19583334 C2.99583334,9.06666666 0,11.8666667 0,15.2791667 C0,19.1583333 3.05833334,19.9708333 7.65416666,20 L9.375,20 L9.375,17.4125 C8.61666666,17.2041667 7.5,16.5041667 7.5,14.1791667 C7.5,10.9958333 9.57083334,10.8333333 9.9875,10.8333333 C10.4083333,10.8333333 12.5,10.9958333 12.5,14.1666667 C12.5,16.475 11.3916667,17.1875 10.625,17.4041667 L10.625,20 L12.3166667,20 L12.8375,19.9916667 C16.5583333,19.9125 20,19.2875 20,15.2791667 C20,11.875 17.0041667,9.07916666 12.8,8.20416666 Z" id="路径"></path>
            </g>
        </g>
    </g>
</svg>
